X:1
T:Där borta
T:Ludvig Norman (1831-1885)
T:Text: Ernst Björck
T:Klara böljor och stjärnor klara
T:©PA Aglert Edition may be freely distributed, duplicated, performed and recorded
T:©PA Aglert Edition may be freely distributed, duplicated, performed and recorded
T:©PA Aglert Edition may be freely distributed, duplicated, performed and recorded
T:©PA Aglert Edition may be freely distributed, duplicated, performed and recorded
T:©PA Aglert Edition may be freely distributed, duplicated, performed and recorded
T:©PA Aglert Edition may be freely distributed, duplicated, performed and recorded
C:Ludvig Norman (1831-1885)
Z:©PA Aglert
Z:Edition may be freely distributed, duplicated, performed and recorded
%%score [ 1 2 3 4 ]
L:1/8
Q:1/4=95
M:3/4
K:A
V:1 treble nm="S"
V:2 treble nm="A"
V:3 treble-8 nm="T"
V:4 bass nm="B"
V:1
"^Lagom fort med friskt föredrag""^1""^2"!mf! cc e2 cA | B>!<(!d f2!<)! e2 | ee (dc) BA | %3
w: Kla- ra böl- jor och|stjär- nor kla- ra,|I, som än- * nu för-|
w: Tind- ra, stjär- na, se,|ti- den ja- gar,|tind- ra milt _ i den|
 c>B B2 z2 |!mf! cc e2 cA | B>!<(!^d f2!<)! e2 | e^d c2 de |!>(! AB!>)! G2 z2 | %8
w: stån va- rann,|ej till vin- tern det|långt kan va- ra,|hur I äls- ken, så|kom- mer han.|
w: lug- na sjö.|Snart dess böl- ja, hur|än du kla- gar,|dom- nar bort un- der|ky- lig snö.|
!pp!!<(! BB BB/B/ B!<)!d | (f2 d2) B2 | BB e2 dd | (c2 B2) A2 | (c4 B2) | B4 z2 |!mf! cc e2 cA | %15
w: Stjär- nan få- fängt sin strå- le|slun- * gar,|ald- rig mer hos sin|våg _ han|gun- *|gar.|Kla- ra böl- jor och|
w: Snart din strå- le i vin- ter-|nat- * ten|få- fängt stud- sar mot|frus- * na|vat- *|ten.|Tind- ra stjär- na, se,|
 B>d f2 e2 | ee (dc) BA | c>B B2 z2 |!f! cc!<(! e2 cA | c>e =g2 f2!<)! |!p! ff!>(! B4!>)! | %21
w: stjär- nor kla- ra,|ald- rig då _ I för-|stån va- rann.|Kla- ra böl- jor och|stjär- nor kla- ra|ald- rig då,|
w: ti- den ja- gar.|Tind- ra ned _ i den|lug- na sjö.|Tind- ra stjär- na, se,|ti- den ja- gar,|tind- ra ned,|
 dd F2 GA |!>(! B4 c2!>)! | A4 !fermata!z2 :|[K:Amin]"^3"!pp! cc e2 cA | B>d f2 e2 | ee (dc) BA | %27
w: ald- rig då I för-|stån va-|rann.|O, vart flyd- den I,|stjär- nor al- la?|O, min stjär- * na vart|
w: tind- ra ned i den|lug- na|sjö.||||
 c>B B2 z2 |!mf! cc B2 AA | GF F2 E2 | AB c2 BA | e^G A2 z2 |!p! BB!<(! BB/B/ B!<)!d | (f2 d2) B2 | %34
w: flyd- de du?|Böl- jan, gömd un- der|i- sen kal- la,|mins din le- en- de|bild än- nu;|Kan ej slum- ra i söm- nen|tun- * ga.|
w: |||||||
 BB e2 dd | (c2 B2) A2 | (c4 B2) | B4 z2 |!f! ^cc e2 cA | ^c>e g2 f2 |!p! ff!>(! _B2 B2!>)! | %41
w: kan blott fängs- lad i|dju- * pet|sjun- *|ga:|O, vart flyd- den I,|stjär- nor al- la,|o, min stjär- na,|
w: |||||||
 dd F2 _B2 |!f! _B4 A>A | f4 z2 |!p! e6 | ^G4 G2 | A6- | A2 z2 z2 |] %48
w: o min stjär- na,|vart flyd- de|du?|Vart|flyd- de|du?|_|
w: |||||||
V:2
!mf! AA A2 EA | G>!<(!B d2!<)! c2 | EF (GA) AA | A>G G2 z2 |!mf! AA A2 EA | F>!<(!B B2!<)! B2 | %6
w: Kla- ra böl- jor och|stjär- nor kla- ra,|I, som än- * nu för-|stån va- rann,|ej till vin- tern det|långt kan va- ra,|
w: Tind- ra, stjär- na, se,|ti- den ja- gar,|tind- ra milt _ i den|lug- na sjö.|Snart dess böl- ja, hur|än du kla- gar,|
 BB E2 FE |!>(! E^D!>)! E2 z2 |!pp!!<(! GG GG/G/ G!<)!B | (d2 B2) G2 | GG G2 BB | (A2 E2) E2 | %12
w: hur I äls- ken, så|kom- mer han.|Stjär- nan få- fängt sin strå- le|slun- * gar,|ald- rig mer hos sin|våg _ han|
w: dom- nar bort un- der|ky- lig snö.|Snart din strå- le i vin- ter-|nat- * ten|få- fängt stud- sar mot|frus- * na|
 (E4 ^D2) | E4 z2 |!mf! EA A2 EA | G>B d2 c2 | EF (GA) AA | A>G G2 z2 |!f! AA!<(! A2 AA | %19
w: gun- *|gar.|Kla- ra böl- jor och|stjär- nor kla- ra,|ald- rig då _ I för-|stån va- rann.|Kla- ra böl- jor och|
w: vat- *|ten.|Tind- ra stjär- na, se,|ti- den ja- gar.|Tind- ra ned _ i den|lug- na sjö.|Tind- ra stjär- na, se,|
 A>c c2!<)! d2 | z2!p! A!>(!A A2!>)! | z2 D2 (EA) | F4 E2 | E4 !fermata!z2 :| %24
w: stjär- nor kla- ra|ald- rig då|I för- *|stån va-|rann.|
w: ti- den ja- gar,|tind- ra ned|i den _|lug- na|sjö.|
[K:Amin]!pp! AA A2 EA | ^G>B d2 c2 | cc A2 ^GA | ^D>E E2 z2 |!mf! EE E2 FF | GB, B,2 C2 | %30
w: O, vart flyd- den I,|stjär- nor al- la?|O, min stjär- na vart|flyd- de du?|Böl- jan, gömd un- der|i- sen kal- la,|
w: ||||||
 CD E2 ^GA | ^GE E2 z2 |!p! ^GG!<(! GG/G/ G!<)!B | (d2 B2) ^G2 | ^GG G2 BB | (A2 E2) E2 | %36
w: mins din le- en- de|bild än- nu;|Kan ej slum- ra i söm- nen|tun- * ga.|kan blott fängs- lad i|dju- * pet|
w: ||||||
 (E4 ^D2) | E4 z2 |!f! EA A2 AA | A>^c c2 d2 | z2!p! F3 F | F4 F2 |!f! F4 F>F | F4 z2 | %44
w: sjun- *|ga:|O, vart flyd- den I,|stjär- nor al- la,|o min|stjär- na,|vart flyd- de|du?|
w: ||||||||
!p! (A4 E2) | D4 D2 | C6- | C2 z2 z2 |] %48
w: Vart _|flyd- de|du?|_|
w: ||||
V:3
!mf! ee e2 ee | e>!<(!d B2!<)! c2 | cc (Bc) d^d | e>e e2 z2 |!mf! ee e2 ec | ^d>!<(!f d2!<)! e2 | %6
w: Kla- ra böl- jor och|stjär- nor kla- ra,|I, som än- * nu för-|stån va- rann,|ej till vin- tern det|långt kan va- ra,|
w: Tind- ra, stjär- na, se,|ti- den ja- gar,|tind- ra milt _ i den|lug- na sjö.|Snart dess böl- ja, hur|än du kla- gar,|
 BB c2 BB |!>(! cB!>)! B2 z2 | z6 |!mf! BB BB/B/ Bd | f2 d2 BB | e2 d2 c2 | AA A4- | A2 G2 z2 | %14
w: hur I äls- ken, så|kom- mer han.||Stjär- nan få- fängt sin strå- le|slun- gar, ald- rig|mer hos sin|våg han gun-|* gar.|
w: dom- nar bort un- der|ky- lig snö.||Snart din strå- le i vin- ter-|nat- ten få- fängt|stud- sar mot|frus- na vat-|* ten.|
!mf! ee e2 ee | e>d B2 c2 | ee e2 d^d | e>e e2 z2 |!f! ee!<(! =g2 ec | e>=g e2!<)! d2 | %20
w: Kla- ra böl- jor och|stjär- nor kla- ra,|ald- rig då I för-|stån va- rann.|Kla- ra böl- jor och|stjär- nor kla- ra|
w: Tind- ra stjär- na, se,|ti- den ja- gar.|Tind- ra ned i den|lug- na sjö.|Tind- ra stjär- na, se,|ti- den ja- gar,|
 z2!p!!>(! ff f2!>)! | z2 d2 (BA) | A4 G2 | A4 !fermata!z2 :|[K:Amin]!pp! ee e2 ee | f>d B2 c2 | %26
w: ald- rig då|I för- *|stån va-|rann.|O, vart flyd- den I,|stjär- nor al- la?|
w: tind- ra ned|i den _|lug- na|sjö.|||
 ee (fe) dc | A>^G G2 z2 |!mf! AA B2 cc | GG G2 G2 | AA A2 Bc | Bd c2 z2 | z6 | %33
w: O, min stjär- * na vart|flyd- de du?|Böl- jan, gömd un- der|i- sen kal- la,|mins din le- en- de|bild än- nu;||
w: |||||||
!mf! BB!<(! BB/B/ B!<)!d | f2 d2 BB | e2 d2 c2 | AA A4- | A2 ^G2 z2 |!f! ee !courtesy!=g2 ec | %39
w: Kan ej slum- ra i söm- nen|tun- ga. kan blott|fängs- lad i|dju- pet sjun-|* ga:|O, vart flyd- den I,|
w: ||||||
 e>g e2 f2 | z2!p! d3 d | d4 d2 |!f! d4 c>c | _B4 z2 |!p! c6 | !courtesy!=B4 B2 | A6- | A2 z2 z2 |] %48
w: stjär- nor al- la,|o min|stjär- na,|vart flyd- de|du?|Vart|flyd- de|du?|_|
w: |||||||||
V:4
!mf! A,A, C2 A,C | D>!<(!B, G,2!<)! A,2 | A,A, A,2 F,F, | E,>E, E,2 z2 |!mf! A,A, C2 A,A, | %5
w: Kla- ra böl- jor och|stjär- nor kla- ra,|I, som än- nu för-|stån va- rann,|ej till vin- tern det|
w: Tind- ra, stjär- na, se,|ti- den ja- gar,|tind- ra milt i den|lug- na sjö.|Snart dess böl- ja, hur|
 A,>!<(!A, A,2!<)! G,2 | G,G, A,2 A,G, |!>(! F,B,!>)! E,2 z2 | z6 |!mf! G,G, G,G,/G,/ G,B, | %10
w: långt kan va- ra,|hur I äls- ken, så|kom- mer han.||Stjär- nan få- fängt sin strå- le|
w: än du kla- gar,|dom- nar bort un- der|ky- lig snö.||Snart din strå- le i vin- ter-|
 D2 B,2 G,G, | A,2 A,2 A,2 | F,F, F,4 | E,4 z2 |!mf! A,A, C2 A,C | D>B, G,2 A,2 | CC (B,A,) F,F, | %17
w: slun- gar, ald- rig|mer hos sin|våg han gun-|gar.|Kla- ra böl- jor och|stjär- nor kla- ra,|ald- rig då _ I för-|
w: nat- ten få- fängt|stud- sar mot|frus- na vat-|ten.|Tind- ra stjär- na, se,|ti- den ja- gar.|Tind- ra ned _ i den|
 E,>E, E,2 z2 |!f! A,A,!<(! A,2 A,A, | A,>A, A,2!<)! D,2 | z2!p! D!>(!D D2!>)! | z2 B,2 (D,C,) | %22
w: stån va- rann.|Kla- ra böl- jor och|stjär- nor kla- ra|ald- rig då|I för- *|
w: lug- na sjö.|Tind- ra stjär- na, se,|ti- den ja- gar,|tind- ra ned|i den _|
 D,4 E,2 | A,,4 !fermata!z2 :|[K:Amin]!pp! A,A, C2 A,C | D>B, ^G,2 A,2 | A,A, A,2 A,A, | %27
w: stån va-|rann.|O, vart flyd- den I,|stjär- nor al- la?|O, min stjär- na vart|
w: lug- na|sjö.||||
 E,>E, E,2 z2 |!mf! A,A, G,2 F,F, | E,D, D,2 C,2 | F,F, E,2 E,E, | E,E, A,,2 z2 | z6 | %33
w: flyd- de du?|Böl- jan, gömd un- der|i- sen kal- la,|mins din le- en- de|bild än- nu;||
w: ||||||
!mf! ^G,G,!<(! G,G,/G,/ G,!<)!B, | D2 B,2 ^G,G, | A,2 A,2 A,2 | F,F, F,4 | E,4 z2 | %38
w: Kan ej slum- ra i söm- nen|tun- ga. kan blott|fängs- lad i|dju- pet sjun-|ga:|
w: |||||
!f! A,A, A,2 A,A, | A,>A, A,2 D2 | z6 |!p! _B,B, B,2 D,2 |!f! D,4 _E,>E, | D,4 z2 | %44
w: O, vart flyd- den I,|stjär- nor al- la,||o min stjär- na,|vart flyd- de|du?|
w: ||||||
!p! !courtesy!=E,6 | E,4 E,2 | A,,6- | A,,2 z2 z2 |] %48
w: Vart|flyd- de|du?|_|
w: ||||

